!!!!SEGMENT: pl-kk--kk-i-40--004-003_lasso-rudolph-di--missa-sanctus.krn
!!!cenid: 16xx:1291
!!!COM: Lasso, Rudolph di
!!!COM-rism: pe30014045
!!!CDT: ~1563-1625
!!!CNT:
!!!OTL: Missa – Sanctus
!!!PDT:
!!!AGN: Sacred; Mass
!!!SMS-siglum: PL-Kk
!!!SMS-shelfmark: Kk.I.40
!!!NIFC-rismID: 1001154490
!!!URL-scan: http://repozytorium.nifc.pl/skany/pl-kk-nut--i-40
!!!ONB-nifc: UWAGA: części Mszy: 1. Kyrie, 2. Et in terra, 3. Sanctus, 4. Agnus Dei. Skan 0007-0008
!!!SMS-variant:
!!!SMS-altvar:
**kern	**text
*I"Baſso Ripieno.	*
*clefF4	*
*k[b-]	*
*M2/1	*
*met(c|)	*
=1-	=1-
!LO:TX:a:t=P:problem:w źródle znaki przykluczowe B- i BB-, zapisane jeden nad drugim	!
00r	.
=2-	=2-
.	.
=3-	=3-
0r	.
=4-	=4-
!LO:TX:t=P:problem:kreska pseudotaktowa	!
1r	.
1GG	San-
=5-	=5-
2.BB-/	.
!LO:TX:t=P:problem:kreska pseudotaktowa	!
4C/	.
4D\	.
4E\	.
1F\	.
=6-	=6-
!LO:TX:t=P:problem:kreska pseudotaktowa	!
2BB-/	-ct(us)
2rBB	.
4GG/	San-
!LO:TX:t=P:problem:kreska pseudotaktowa	!
4AA/	.
=7-	=7-
4BB-/	.
4C/	.
2.D/	.
4BB-/	.
*2\right	*
2E-X\	.
=8-	=8-
!LO:TX:t=P:problem:kreska pseudotaktowa	!
1D,<	-ctus
!LO:TX:t=P:problem:kreska pseudotaktowa	!
00r	.
=9-	=9-
.	.
=10-	=10-
2r	.
2.G\	Do-
=11-	=11-
4G\	-mi-
!LO:TX:t=P:problem:kreska pseudotaktowa	!
2F#X\	-n(us)
2G\	De-
2GG/	-us
=12-	=12-
2.D/	Sab-
!LO:TX:t=P:problem:kreska pseudotaktowa	!
4C/	.
2BB-/	.
2GG/	-ba-
=13-	=13-
!LO:TX:t=P:problem:kreska pseudotaktowa	!
1D,<	-oth
00r	.
=14-	=14-
.	.
=15-	=15-
2G\	Ple-
4G\	-ni
4G\	sunt
=16-	=16-
2D\	cae-
4D\	-li
4E\ny	et
!LO:TX:a:t=P:problem:# above	!
1F#X	ter-
=17-	=17-
!LO:TX:t=P:problem:kreska pseudotaktowa	!
1G	.
2.D/	-ra
4C/	.
=18-	=18-
4BB-/	.
4AA/	.
1GG	glo-
!LO:TX:t=P:problem:kreska pseudotaktowa	!
2D/	-ri-
!LO:LB:g=original	!
=19-	=19-
1G,>	-â
1D	tu-
=20-	=20-
2GG,</	-a
4G\	glo-
4F\ny	.
4E-X\	.
4D\	.
2.C/	.
=21-	=21-
4C/	ri-
!LO:TX:t=P:problem:kreska pseudotaktowa	!
2BBn/	-a
1C	tu-
=22-	=22-
!LO:TX:t=P:problem:podwójna kreska pseudotaktowa	!
0GG;>	-a
=23||	=23||
*M3/2	*
00.r	.
=24-	=24-
.	.
=25-	=25-
.	.
=26-	=26-
.	.
=27-	=27-
!LO:TX:t=P:problem:kreska pseudotaktowa	!
1.r	.
=28-	=28-
2G\	O-
2G\	-san-
!LO:TX:t=P:problem:kreska pseudotaktowa	!
2GG/	-na
=29-	=29-
2.D\	in
4D\	ex-
!LO:TX:t=P:problem:kreska pseudotaktowa	!
2F\	-cel-
=30-	=30-
1D,<	-ſis
!LO:TX:t=P:problem:kreska pseudotaktowa	!
2GG/	O-
=31-	=31-
1C	-san-
1AA/	-na
=32-	=32-
.	.
2BB-/	in
!LO:TX:t=P:problem:kreska pseudotaktowa	!
2GG/	ex-
=33-	=33-
4GG/	-cel-
4AA/	.
4BB-/	.
4C/	.
!LO:TX:t=P:problem:kreska pseudotaktowa	!
2D\	ſis
=34-	=34-
1GG	in
1C/	ex-
=35-	=35-
2BBn/	.
2C/	-cel-
=36-	=36-
!LO:TX:t=P:problem:kreska pseudotaktowa	!
!LO:TX:b:i:t=Benedict(us) \nVertat	!
!LO:N:vis=0	!
!LO:TX:t=P:problem:podwójna kreska pseudotaktowa	!
1.GG;>	-ſis.
!LO:PB:g=original	!
=37||	=37||
*M2/1	*
*met(c|)	*
!LO:TX:t=P:problem:kreska pseudotaktowa	!
!LO:TX:a:t=I.	!
1rA	.
1.D	Be-
=38-	=38-
2BB-/	-ne-
1F	-di-
=39-	=39-
2F\	-ct(us)
2F\	qui
2.B-\	ve-
4A\	.
=40-	=40-
!LO:TX:t=P:problem:kreska pseudotaktowa	!
1G	.
2G,<\	-nit
2D\	qui
=41-	=41-
2.G\	ve-
8F\L	.
8E\J	.
1D	.
=42-	=42-
!LO:TX:t=P:problem:kreska pseudotaktowa	!
1GG	-nit
2G\	in
4G\	N(o-
4G\	-mi)-
=43-	=43-
1D	-ne
2.F\	Do-
4E\	.
=44-	=44-
2D/	.
2C/	-mi-
!LO:TX:t=P:problem:kreska pseudotaktowa	!
1D	-ni
=45-	=45-
1r	.
2r	.
2D/	in
=46-	=46-
2BBn/	No-
!LO:TX:t=P:problem:kreska pseudotaktowa	!
2C/	-mi-
2D/	-ne
!LO:TX:a:t=P:problem:♭ above	!
2BB-X/	Do-
=47-	=47-
2F\	.
2D\	-mi-
2C,</	-ni
2AA/	in
=48-	=48-
2C/	N(o-
2G\	-mi)-
!LO:TX:t=P:problem:kreska pseudotaktowa	!
1F	-ne
=49-	=49-
2.C/	Do-
8BB-/L	.
8AA/J	.
4GG/	.
4AA/	.
4BB-/	.
4C/	.
=50-	=50-
1.D	.
2D\	-mi-
=51-	=51-
0GG;>	-ni.
!LO:TX:b:i:t=Osanna \nda Capo	!
=-	=-
*-	*-
!!!RDF**kern: > = above
!!!RDF**kern: < = below
!!!EED: Antoni Szymański
!!!EST: 2021-07-31
!!!ENC:Berenika Jozajtis
!!!END:2021-07-04
